X: 1
T: For Lack of Gold
R: reel
O: Arr: Peter White
Z: 2010 John Chambers <jc:trillian.mit.edu>
B: Hugh Foss "DANCES to SONG TUNES" 1966 (music: Peter White)
M: C|
L: 1/8
K: C
E>D |\
"C"C3E GAcG | "F"A2de "G"d2(cA) | "C"c2g2 efgc | "C"e2ga g2fe |
"F"fgaf "C"efge | "Dm"fedc "G"d2 ((3cde) | "C"C3E GAcG | "F"A2"G"cd "C"c2 ||
c>d |\
"C"ec"E7"dB "Am"cGAE | "D"D2de "G"d2eg | "C"agea gcac | "C"efga agfe |
"F"fgaf "C"efge | "Dm"fedc "G"d2 ((3cde) | "C"C3E GAcG | "F"A2"G"cd "C"c2 |]

